pix_core/i/checkpermissions.svg

<svg preserveAspectRatio="xMinYMid meet" viewBox="0 0 640 512" xmlns="http://www.w3.org/2000/svg"><path d="m224 256a128 128 0 1 0 0-256 128 128 0 1 0 0 256zm-45.7 48c-98.5 0-178.3 79.8-178.3 178.3 0 16.4 13.3 29.7 29.7 29.7h362.9c-5.4-9.4-8.6-20.3-8.6-32v-128c0-2.1.1-4.2.3-6.3-31-26-71-41.7-114.6-41.7zm349.7-64c17.7 0 32 14.3 32 32v48h-64v-48c0-17.7 14.3-32 32-32zm-80 32v48c-17.7 0-32 14.3-32 32v128c0 17.7 14.3 32 32 32h160c17.7 0 32-14.3 32-32v-128c0-17.7-14.3-32-32-32v-48c0-44.2-35.8-80-80-80s-80 35.8-80 80z" fill="#fff"/></svg>

<svg xmlns="http://www.w3.org/2000/svg" viewBox="0 0 640 512" preserveAspectRatio="xMinYMid meet"><!--!Font Awesome Free 6.5.2 by @fontawesome - https://fontawesome.com License - https://fontawesome.com/license/free Copyright 2024 Fonticons, Inc.--><path fill="#fff" d="M224 256A128 128 0 1 0 224 0a128 128 0 1 0 0 256zm-45.7 48C79.8 304 0 383.8 0 482.3C0 498.7 13.3 512 29.7 512H392.6c-5.4-9.4-8.6-20.3-8.6-32V352c0-2.1 .1-4.2 .3-6.3c-31-26-71-41.7-114.6-41.7H178.3zM528 240c17.7 0 32 14.3 32 32v48H496V272c0-17.7 14.3-32 32-32zm-80 32v48c-17.7 0-32 14.3-32 32V480c0 17.7 14.3 32 32 32H608c17.7 0 32-14.3 32-32V352c0-17.7-14.3-32-32-32V272c0-44.2-35.8-80-80-80s-80 35.8-80 80z"/></svg>
